X:2
T:Kinda Polska
S:efter Frans Emil Reinholdsson
O:Linköping, Östergötland 
R:Polska
B:Notbok Ög 19
B:http://www.smus.se/earkiv/fmk/browselarge.php?lang=sw&katalogid=%C3%96g+19&bildnr=00002
M:3/4
L:1/8
K:A
.e z c4 | B3/2A/2 B3/2c/2 A2 | A3/2G/2 ABcd | B3/2e/2 e z E2 | .e z c4 | B3/2A/2 B3/2c/2 A2 | F3/2G/2 AB c z/2 e/2 | B z A4 ::
c2 e3/2c/2 e3/2c/2 | B2 e3/2B/2 e2 | A2 c3/2A/2 c3/2A/2 | G2 c3/2G/2 c2 | F3/2G/2 ABcd | e3/2f/2 gabc' | d3/2c/2 defg | a z A4 :|]

